!!!!SEGMENT: pl-wumfc--r300--004_paderewski-ignacy-jan--canons-canon-4.krn
!!!cenid: 18xx:3216
!!!COM: Paderewski, Ignacy Jan
!!!COM-rismid: pe30029943
!!!CDT: 1860/11/18-1941/06/29
!!!CNT: Polish
!!!GTL: [Canons]
!!!OTL: [Canon 4]
!!!PDT:
!!!AGN:
!!!SMS-siglum: PL-Wumfc
!!!SMS-shelfmark: R300
!!!SMS-shelfwork: 004 G
!!!SMS-variant:
!!!SMS-altvar:
!!!NIFC-rismid: 1001159509
!!!URL-scan: http://repozytorium.nifc.pl/skany/pl-wumfc--r300
!!!ONB-nifc: UWAGA: skan 0003 z dopiskiem „II”
!!!key: a
**kern	**kern
*part2	*part1
*staff2	*staff1
*I"[Fortepian]	*I"[Fortepian]
*Ipiano	*Ipiano
*ICklav	*ICklav
*IGsolo	*IGsolo
*clefF4	*clefG2
*k[]	*k[]
*C:	*C:
*M4/4	*M4/4
=1	=1
*^	*^
!	!	!LO:TX:a:rj:t=II	!
4r	2r	1rg	2r
8r	.	.	.
8c/	.	.	.
8B/L	4r	.	2r
8A/	.	.	.
8B/	8r	.	.
8G/J	8G\	.	.
=2	=2	=2	=2
8A/L	8F\L	1rg	2r
16B/L	8E\	.	.
16c/JJ	.	.	.
4d/	8F\	.	.
.	[>8D\J	.	.
4c/	8D\L]	.	4r
.	16E\L	.	.
.	16F\J	.	.
4B/	8G\	.	8r
.	8GG\J	.	8f\
=3	=3	=3	=3
4c/	8C\L	2r	8e\L
.	8D\	.	8d\
4G/	8C\	.	8e\
.	8E\J	.	8c\J
4F/	4F\	4r	8A\L
.	.	.	8B\
4G/	4E\	4cc/	8c\
.	.	.	8d\J
=4	=4	=4	=4
4G#X/	4EE\	4b/	8e\L
.	.	.	8d\J
8A/L	4FF\	4a/	4c\
16Gn/L	.	.	.
16F/JJ	.	.	.
8D/L	4GG\	4b/	8B\L
8F/J	.	.	8d\
4E/	4C\	4g/	8c\
.	.	.	8B-X\J
=5	=5	=5	=5
2F/	8FL 8FF\	4a/	8A\L
.	8D\J	.	8f\
.	4GG\	4b/	8e\
.	.	.	8d\J
8E/L	[2C\	[2cc/	8c\L
8F/	.	.	8A\
8E/	.	.	8c\
8F/J	.	.	8d\J
!!LO:LB:g=original
=6	=6	=6	=6
!	!LO:TX:b:t=P:problem:brak zakończenia ligatury	!	!
2G;/	2C\]	2cc;/]	2e\
4r	2r	4ra	4rd
4r	.	4r	8rd
.	.	.	8cc\
=7	=7	=7	=7
4r	2r	1r	8cc\L
.	.	.	8g\
8r	.	.	8g\
8c/	.	.	16e\L
.	.	.	16f\JJ
8cL 8G/	4r	.	[>8g\L
8G/	.	.	16g\L]
.	.	.	16f\JJ
8G/	8r	.	[>8e\L
8E/J	8E\	.	16e\L]
.	.	.	16d\JJ
=8	=8	=8	=8
8E/L	8E\L	2r	4c\
8A/J	8C\	.	.
4A/	8C\	.	8e\L
.	8AA\J	.	8f#X\J
4B/	8GG\L	4r	8g\L
.	8GG#X\	.	8fn\
8c/L	8AA\	4cc/	8e\
8B/J	8BB\J	.	8d\J
=9	=9	=9	=9
8A/L	8C\L	4cc/	[>4c\
8A-X/J	8D\J	.	.
4G/	4E\	4g/	8c\L]
.	.	.	8d\J
8G/L	8E\L	4g/	[2e\
8A-/	8F#X\	.	.
8B/	8G\	4e/	.
8A-/J	8F#\J	.	.
=10	=10	=10	=10
8G/L	8E\L	4g/	4e\]
8B-X/J	8C#X\J	.	.
4A/	4D\	4f/	8d\L
.	.	.	8c\J
4G#X/	8E\L	[2e/	4B\
.	8D\	.	.
4A/	8Cn\	.	4c\
.	8AA\J	.	.
=11	=11	=11	=11
2G#X;/	2EE\	2e;/]	2B\
4r	2r	2r	4r
4r	.	.	8r
.	.	.	8e\
!!LO:LB:g=original
=12	=12	=12	=12
4r	2r	1r	8a\L
.	.	.	8a\
8r	.	.	8g\
8G/	.	.	8b\J
8e/L	4r	.	8cc\L
8e/	.	.	16dd\L
.	.	.	16cc\J
8d/	8r	.	8b\
8f#X/J	8D\	.	8a\J
=13	=13	=13	=13
!	!	!LO:N:vis=1	!
8g/L	8G\L	2.r	4g\
8B/J	8G\	.	.
4A/	8F\	.	8a\L
.	8A\J	.	8f\J
8B/L	8G\L	.	8e\L
8A/	8F\	.	8d\
8G/	8E\	4e/	8c\
8G#X/J	8D\J	.	8B\J
=14	=14	=14	=14
[4A/	8C\L	4a/	8A\L
.	8BB\J	.	8B\
4A/]	8AA\L	4a/	8c\
.	8FF\J	.	8d\J
8B/L	2GG\	4g/	8e\L
8A/	.	.	8f\
8G/	.	4b/	8e\
8F/J	.	.	8d\J
=15	=15	=15	=15
8E/L	2C\	4cc/	8c\L
16F/L	.	.	16d\L
16G/JJ	.	.	16e\JJ
8A/L	.	4a/	4f\
8B/J	.	.	.
8c/L	[2CC\	[2g/	8e\L
8A/	.	.	8f\
8G/	.	.	8e\
8F/J	.	.	8d\J
=16	=16	=16	=16
2E;/	2CC\]	2g;/]	2c\
4r	4r	2r	4r
4r	8r	.	4r
.	8c\	.	.
!!LO:LB:g=original
=17	=17	=17	=17
4r	8B\L	1r	2r
.	8A\	.	.
8r	8G\	.	.
8c/	8E\J	.	.
8B/L	8D\L	.	4r
8A/	8E\	.	.
8G/	16E\L	.	8r
.	16D\J	.	.
8E/J	8C\J	.	8e\
=18	=18	=18	=18
4F#X/	8BB\L	2r	8d\L
.	8AA\	.	8c\
4G/	8GG\	.	8B\
.	16GG\L	.	8G\J
.	16FF\JJ	.	.
8G/L	8EE\L	4r	8g\L
16A/L	8DD\	.	8f\J
16B/JJ	.	.	.
4c/	8CC\	4cc/	4e\
.	8DD\J	.	.
=19	=19	=19	=19
4G/	8EE\L	4b/	4e\
.	16FF#X\	.	.
.	16GG\	.	.
2E/	8AA\	4a/	4c\
.	8BB\J	.	.
.	8C\L	4g/	4e\
.	8D\	.	.
4G/	8D\	4e/	4c\
.	8BB\J	.	.
=20	=20	=20	=20
8F/L	8AA\L	4f/	4c\
8A/J	8FF\J	.	.
8G/L	4GG\	4d/	4B\
8F/J	.	.	.
8E/L	2C\	2c/	4ryy
8D/	.	.	.
8E/	.	.	4c\
8F/J	.	.	.
=21	=21	=21	=21
8G/L	[1CC	[1c	4B-X\
16F/L	.	.	.
16E/JJ	.	.	.
8F/L	.	.	4A\
8C/J	.	.	.
8E/L	.	.	4G\
8D/	.	.	.
8C/	.	.	4E\
8BB/J	.	.	.
!!LO:LB:g=original
=22	=22	=22	=22
8AA/L	1CC]	1c;]	2F\
8GG/	.	.	.
8AA/	.	.	.
8BB/J	.	.	.
2C;/	.	.	2E;>\
*v	*v	*	*
*	*v	*v
==	==
*-	*-
!!!system-decoration: {(s1,s2)}
!!!RDF**kern: > = above
!!!ENC: Anastazja Marusiak
!!!END: 2021-11-13
!!!ENC: Marta Lawrence
!!!END: 2021-11-17
